!!!ONB: MCCC : ILB0326_02 : Extracted Monophonic Melody
!!!COM: Beethoven, Ludwig van
!!!OPR: Violin Sonata No.5 in F major
!!!OMV: 2
!!!SCT: Op.24
!!!ODT: 1800///
**kern
*staff1
*clefG2
*k[b-e-]
*B-:
*M3/4
4d
4f
=3
4r
4f
4b-
=4
4r
4B-
4B-
=5
2.A
=6
4r
4A
4c
=7
4r
4c
4f
=8
4f
4f
4f
=9
4d
4r
4r
=10
2dd[
16dd]
32ee-
32dd
16cc
16dd
=11
2b-
4f
=12
4.b-
8b-
64cc
64b-
64cc
64b-
64cc
64b-
64a
64b-
16cc
16dd
=13
8dd
16ff
16ee-
2ee-
=14
8.ee-
64ff
64ee-
64dd
64ee-
4.gg
64ff#
64gg
64aa
64gg
64ff
64ee-
64dd
64cc
=15
4b-
4a[
16a]
48b-
48a
48g
16.a
32b-
=16
4cc
4cc
8cc
64dd
64cc
64b
64cc
16dd
=17
4b-
4r
4r
=18
2.r
=19
4r
4r
16dd-
16dd
16gg
16bb-
=20
4ddd
4ccc
32ee
32ff
32gg
32ff
32ee
32ff
32gg
32aa
=21
4bb-
4aa
4r
=22
8r
8B-
8r
8d
8r
8G
=23
8r
16b
16cc
16b
16cc
16ee
16ff
16ee
16ff
16aa-
16aa
=24
8aa
8dd
8r
8bb-
8r
8ee
=25
8.ff
32ff[
32ff]
8a
8f
8c
8A
=26
8.aa
32aa[
32aa]
8cc
8a
8f
8c
=27
4A
4r
4r
=28
2.ff
=29
4dd
4r
4r
=30
8r
16f
16f
8b-
8f
4r
=31
8r
16b-
16b-
8dd
8b-
4r
=32
8r
8dd
8r
8ff
8r
8bb-
=33
8r
16aa
16aa
8eee-
8aa
4r
=34
8r
16A
16A
8g
8A
4r
=35
8r
16A
16A
8f#
8A
4r
=36
8r
16A
16c
8r
16c
16f
8r
16c
16f
=37
4d
4r
4r
=38
2dd-[
16dd-]
32ee-
32dd-
16cc
16dd-
=39
2b-
4f
=40
4.b-
8b-
64b
64a#
64b
64a#
64b
64b-
64a-
64b-
16b
16dd-
=41
4dd-
4.b
8b
=42
4.aa-
8ff
8dd-
8b
=43
2b-
4ee-
=44
2dd-
4f
=45
4f#
4r
4r
=46
2.dd-
=47
2dd
4b
=48
2a
16a
64b
64a
64g#
64a
16b
16a
=49
4a
4r
4r
=50
4dd
4dd
4dd
=51
2.ee-
=52
2dd
4gg
=53
2ff
4a
=54
16b-
16f
16d
16f
16B-
16f
16d
16f
16B-
16f
16d
16f
=55
16e-
16f
16e-
16f
16a
16f
16e-
16f
16A
16f
16e-
16f
=56
16f
16f
16a-
16f
16b
16f
16a-
16f
16B
16a-
16B
16a-
=57
16c
16g
16G
16e-
16d
16e-
16e
16f
16c
16f
16e-
16f
=58
4d
4dd
32ee-
32dd
32cc
32dd
32ee-
32dd
32cc
32b-
=59
4a
4ee-
32ff
32ee-
32dd
32ee-
32ff
32ee-
32dd
32cc
=60
4b
4ff
32gg
32ff
32ee
32ff
32gg
32ff
32ee-
32dd
=61
4gg
4r
4r
=62
2.r
=63
8r
8f
8r
8f
8r
8f
=64
4f
4r
4r
=65
32cc
32a
32cc
32a
32cc
32a
32cc
32a
32cc
32a
32cc
32a
32cc
32a
32cc
32a
32cc
32a
32cc
32a
32cc
32a
32cc
32a
=66
4b-
4d
4f
=67
32e-
32f
32e-
32f
32e-
32f
32e-
32f
32e-
32f
32e-
32f
32e-
32f
32e-
32f
32e-
32f
32e-
32f
32e-
32f
32e-
32f
=68
4d
4r
4r
=69
32A
32c
32A
32c
32A
32c
32A
32c
32A
32c
32A
32c
32A
32c
32A
32c
32A
32c
32A
32c
32A
32c
32A
32c
=70
4B-
16d
32e-
32d
16c#
16d
4B-
=71
4r
16f
32g
32f
16e
16f
4d
=72
4r
16dd
32ee-
32dd
16cc#
16dd
16b-
32cc
32b-
16a
16b-
=73
2b-
8r
8b-
==
*-
